X:430
T:Un p'tit brin d'musette
Z:Jack Campin, http://www.campin.me.uk/
F:Jack Campin's Nine-Note Tunebook
% last edit 17-07-2013
C:Andre Verchuren & Jean Barcelere 
M:3/4
L:1/8
Q:3/4=52
P:ABCBCB
K:G
P:A
 "0"^D2E2 |("Am"c2 B2 c2 |"D7"B2     A2B2 |"G" d2 B2 G2 |"E7"F4)\
      (E2 | "Am"G2 E2 G2 |"D7"F2     G2A2 |"G" G6-)     |    G2||
P:B
 ("0"DEFB)| "G" F4    E2-|    E2     DEFG |    E6-      |    E2\
    (DEFB)|     F4    E2-|"E7"E2     DEFD |"Am"E6-      |    E2
     ABcd | "D7"B4    A2-|"B7"A2    (BcBF)|"Em"A4    G2-|    G2\
   (^D2E2 | "A7"B2 A2 G2 |    A2 {AB}F2G2)|"D7"A6-      |    A2
 ("0"DEFB)| "G" F4    E2-|    E2     DEFG |    E6-      |    E2\
     GABc | "G7"B4    A2-|    A2     GABG |"C" A6-      |    A2
("0"^D2E2)|("Am"c2 B2 c2 |"D7"B2     A2B2 |"G" d2 B2 G2 |"E7"F4)\
      (E2 | "Am"G2 E2 G2 |"D7"F2     G2A2)|"G" G6-      |    G2||
P:C
K:GMin
z4|"Gm"D2 B3  A|    G6           |"Cm"A2 B2 c2|    A6 |\
   "D7"A2 B2 c2|    d4         c2|    B4    A2|"Gm"G6 |
       G2 A2 B2|"Cm"c4         d2|    c4    G2|"Gm"B6 |\
   "A7"A2 B2 A2|    G2 {AG}^F2 G2|"D7"A6-     |    A2||


% == Breton songs and dance tunes ===========================================

